res/skins/LateNight/classic/buttons/btn__sync_deck.svg

<svg width="36" height="18" version="1.1" xmlns="http://www.w3.org/2000/svg">
  <g transform="translate(-7,-2)" fill="none">
    <path d="m16 8h-7v4h5v2h-5v1h7v-4h-5v-2h5v-1"/>
    <path d="m26 8v7h2v-6h3v6h2v-7h-7"/>
    <path d="m34 8v7h7v-1h-5v-5h5v-1h-7"/>
    <path d="m20 15v-3.5l-3-3v-0.5h1.5l2.5 2.5 2.5-2.5h1.5v0.5l-3 3v3.5h-2"/>
  </g>
  <g transform="translate(-7,-2)" fill="none" stroke="#000001" stroke-linecap="round" stroke-linejoin="round" stroke-width="1.6">
    <path d="m16 8h-7v4h5v2h-5v1h7v-4h-5v-2h5z"/>
    <path d="m26 8v7h2v-6h3v6h2v-7z"/>
    <path d="m34 8v7h7v-1h-5v-5h5v-1z"/>
    <path d="m20 15v-3.5l-3-3v-0.5h1.5l2.5 2.5 2.5-2.5h1.5v0.5l-3 3v3.5z"/>
  </g>
  <g transform="translate(-7,-2)" fill="#d2d2d1">
    <path d="m16 8h-7v4h5v2h-5v1h7v-4h-5v-2h5z"/>
    <path d="m26 8v7h2v-6h3v6h2v-7z"/>
    <path d="m34 8v7h7v-1h-5v-5h5v-1z"/>
    <path d="m20 15v-3.5l-3-3v-0.5h1.5l2.5 2.5 2.5-2.5h1.5v0.5l-3 3v3.5z"/>
  </g>
</svg>

<?xml version="1.0" encoding="UTF-8" standalone="no"?>
<svg
   xmlns:dc="http://purl.org/dc/elements/1.1/"
   xmlns:cc="http://creativecommons.org/ns#"
   xmlns:rdf="http://www.w3.org/1999/02/22-rdf-syntax-ns#"
   xmlns:svg="http://www.w3.org/2000/svg"
   xmlns="http://www.w3.org/2000/svg"
   xmlns:sodipodi="http://sodipodi.sourceforge.net/DTD/sodipodi-0.dtd"
   xmlns:inkscape="http://www.inkscape.org/namespaces/inkscape"
   width="46"
   height="20"
   version="1.1"
   id="svg32"
   sodipodi:docname="btn__sync_deck.svg"
   inkscape:version="0.92.5 (2060ec1f9f, 2020-04-08)">
  <metadata
     id="metadata38">
    <rdf:RDF>
      <cc:Work
         rdf:about="">
        <dc:format>image/svg+xml</dc:format>
        <dc:type
           rdf:resource="http://purl.org/dc/dcmitype/StillImage" />
        <dc:title></dc:title>
      </cc:Work>
    </rdf:RDF>
  </metadata>
  <defs
     id="defs36" />
  <sodipodi:namedview
     pagecolor="#ffffff"
     bordercolor="#666666"
     borderopacity="1"
     objecttolerance="10"
     gridtolerance="10"
     guidetolerance="10"
     inkscape:pageopacity="0"
     inkscape:pageshadow="2"
     inkscape:window-width="1920"
     inkscape:window-height="1056"
     id="namedview34"
     showgrid="true"
     inkscape:zoom="128"
     inkscape:cx="35.786582"
     inkscape:cy="7.2929698"
     inkscape:window-x="0"
     inkscape:window-y="0"
     inkscape:window-maximized="1"
     inkscape:current-layer="svg32">
    <inkscape:grid
       type="xygrid"
       id="grid854" />
  </sodipodi:namedview>
  <g
     id="g10"
     style="fill:none"
     transform="translate(-2,-2)">
    <path
       d="M 16,8 H 9 v 4 h 5 v 2 H 9 v 1 h 7 V 11 H 11 V 9 h 5 V 8"
       id="path2"
       inkscape:connector-curvature="0" />
    <path
       d="m 26,8 v 7 h 2 V 9 h 3 v 6 h 2 V 8 h -7"
       id="path4"
       inkscape:connector-curvature="0" />
    <path
       d="m 34,8 v 7 h 7 V 14 H 36 V 9 h 5 V 8 h -7"
       id="path6"
       inkscape:connector-curvature="0" />
    <path
       d="m 20,15 v -3.5 l -3,-3 V 8 h 1.5 L 21,10.5 23.5,8 H 25 v 0.5 l -3,3 V 15 h -2"
       id="path8"
       inkscape:connector-curvature="0" />
  </g>
  <g
     id="g20"
     style="fill:none;stroke:#000001;stroke-width:1.60000002;stroke-linecap:round;stroke-linejoin:round"
     transform="translate(-2,-2)">
    <path
       d="M 16,8 H 9 v 4 h 5 v 2 H 9 v 1 h 7 V 11 H 11 V 9 h 5 z"
       id="path12"
       inkscape:connector-curvature="0" />
    <path
       d="m 26,8 v 7 h 2 V 9 h 3 v 6 h 2 V 8 Z"
       id="path14"
       inkscape:connector-curvature="0" />
    <path
       d="m 34,8 v 7 h 7 V 14 H 36 V 9 h 5 V 8 Z"
       id="path16"
       inkscape:connector-curvature="0" />
    <path
       d="m 20,15 v -3.5 l -3,-3 V 8 h 1.5 L 21,10.5 23.5,8 H 25 v 0.5 l -3,3 V 15 Z"
       id="path18"
       inkscape:connector-curvature="0" />
  </g>
  <g
     id="g30"
     style="fill:#d2d2d1"
     transform="translate(-2,-2)">
    <path
       d="M 16,8 H 9 v 4 h 5 v 2 H 9 v 1 h 7 V 11 H 11 V 9 h 5 z"
       id="path22"
       inkscape:connector-curvature="0" />
    <path
       d="m 26,8 v 7 h 2 V 9 h 3 v 6 h 2 V 8 Z"
       id="path24"
       inkscape:connector-curvature="0" />
    <path
       d="m 34,8 v 7 h 7 V 14 H 36 V 9 h 5 V 8 Z"
       id="path26"
       inkscape:connector-curvature="0" />
    <path
       d="m 20,15 v -3.5 l -3,-3 V 8 h 1.5 L 21,10.5 23.5,8 H 25 v 0.5 l -3,3 V 15 Z"
       id="path28"
       inkscape:connector-curvature="0" />
  </g>
</svg>
